X: 15
T:Fool's Jig (Bampton)
M:2/2
L:1/8
O:England; Oxfordshire; Bampton.
B:Lionel Bacon, A Handbook of Morris Dances
Z:http://www.themorrisring.org/music/handbook-morris-dances
P:A(AB)4A
K:G
P:A
BA|GFGD B,2G2|AGFE D2c2|BcdB G2G2|AGFE DcBA|
GFGD B,2G2|AGFE D2c2|BcdB ecAF|G2G2G2|
P:B
B2|cedB G2d2|gagf c2Bc|dedB G2G2|AGFE DcBA|
GFGE D2G2|AGFE D2c2|BcdB ecAF|G2G2G2|

